packages/ui/public/icons/key.svg

<svg width="24" height="25" viewBox="0 0 24 25" fill="none" xmlns="http://www.w3.org/2000/svg">
<path opacity="0.4" d="M17 9.49994C17 8.98812 16.8047 8.4763 16.4142 8.08579C16.0237 7.69526 15.5118 7.5 15 7.5" stroke="white" stroke-width="2" stroke-linecap="round" stroke-linejoin="round"/>
<path d="M21 9.5C21 12.8137 18.3137 15.5 15 15.5C14.7263 15.5 14.4569 15.4817 14.193 15.4462C13.7588 15.3878 13.5417 15.3586 13.4044 15.3783C13.2613 15.3987 13.1843 15.4248 13.0581 15.4953C12.937 15.563 12.8177 15.6823 12.5791 15.9209L11 17.5H9V19.5H7V21.5H4.6C4.03995 21.5 3.75992 21.5 3.54601 21.391C3.35785 21.2951 3.20487 21.1422 3.10899 20.954C3 20.7401 3 20.4601 3 19.9V18.1627C3 17.9182 3 17.7959 3.02763 17.6808C3.05213 17.5787 3.09253 17.4812 3.14736 17.3917C3.2092 17.2908 3.29568 17.2043 3.46863 17.0314L8.57913 11.9209C8.81771 11.6823 8.937 11.563 9.00469 11.4419C9.0752 11.3157 9.10125 11.2387 9.12172 11.0956C9.14136 10.9583 9.11218 10.7412 9.05381 10.307C9.01832 10.0431 9 9.77368 9 9.5C9 6.18629 11.6863 3.5 15 3.5C18.3137 3.5 21 6.18629 21 9.5Z" stroke="white" stroke-width="2" stroke-linecap="round" stroke-linejoin="round"/>
</svg>

<svg width="24" height="25" fill="none" xmlns="http://www.w3.org/2000/svg"><path opacity=".4" d="M17 9.5c0-.512-.195-1.024-.586-1.414A1.994 1.994 0 0 0 15 7.5" stroke="#fff" stroke-width="2" stroke-linecap="round" stroke-linejoin="round"/><path d="M21 9.5a6 6 0 0 1-6.807 5.946c-.434-.058-.651-.087-.789-.068a.852.852 0 0 0-.346.117c-.121.068-.24.187-.479.426L11 17.5H9v2H7v2H4.6c-.56 0-.84 0-1.054-.109a1 1 0 0 1-.437-.437C3 20.74 3 20.46 3 19.9v-1.737c0-.245 0-.367.028-.482a1 1 0 0 1 .12-.29c.061-.1.148-.187.32-.36l5.111-5.11c.239-.239.358-.358.426-.48a.853.853 0 0 0 .117-.345c.02-.138-.01-.355-.068-.789A6 6 0 1 1 21 9.5Z" stroke="#fff" stroke-width="2" stroke-linecap="round" stroke-linejoin="round"/></svg>
